images/50649082.svg

<?xml version="1.0" encoding="UTF-8"?>
<svg xmlns="http://www.w3.org/2000/svg" xmlns:xlink="http://www.w3.org/1999/xlink" width="300pt" height="300pt" viewBox="0 0 300 300" version="1.1">
<defs>
<g>
<symbol overflow="visible" id="glyph0-0">
<path style="stroke:none;" d="M 0.640625 2.296875 L 0.640625 -9.171875 L 7.140625 -9.171875 L 7.140625 2.296875 Z M 1.375 1.578125 L 6.421875 1.578125 L 6.421875 -8.4375 L 1.375 -8.4375 Z M 1.375 1.578125 "/>
</symbol>
<symbol overflow="visible" id="glyph0-1">
<path style="stroke:none;" d="M 5.125 -8.609375 C 4.1875 -8.609375 3.441406 -8.257812 2.890625 -7.5625 C 2.347656 -6.875 2.078125 -5.929688 2.078125 -4.734375 C 2.078125 -3.535156 2.347656 -2.585938 2.890625 -1.890625 C 3.441406 -1.203125 4.1875 -0.859375 5.125 -0.859375 C 6.050781 -0.859375 6.785156 -1.203125 7.328125 -1.890625 C 7.878906 -2.585938 8.15625 -3.535156 8.15625 -4.734375 C 8.15625 -5.929688 7.878906 -6.875 7.328125 -7.5625 C 6.785156 -8.257812 6.050781 -8.609375 5.125 -8.609375 Z M 5.125 -9.65625 C 6.445312 -9.65625 7.503906 -9.207031 8.296875 -8.3125 C 9.097656 -7.414062 9.5 -6.222656 9.5 -4.734375 C 9.5 -3.234375 9.097656 -2.035156 8.296875 -1.140625 C 7.503906 -0.253906 6.445312 0.1875 5.125 0.1875 C 3.789062 0.1875 2.722656 -0.253906 1.921875 -1.140625 C 1.128906 -2.035156 0.734375 -3.234375 0.734375 -4.734375 C 0.734375 -6.222656 1.128906 -7.414062 1.921875 -8.3125 C 2.722656 -9.207031 3.789062 -9.65625 5.125 -9.65625 Z M 5.125 -9.65625 "/>
</symbol>
<symbol overflow="visible" id="glyph0-2">
<path style="stroke:none;" d="M 1.28125 -9.484375 L 3 -9.484375 L 7.203125 -1.546875 L 7.203125 -9.484375 L 8.453125 -9.484375 L 8.453125 0 L 6.71875 0 L 2.515625 -7.921875 L 2.515625 0 L 1.28125 0 Z M 1.28125 -9.484375 "/>
</symbol>
<symbol overflow="visible" id="glyph0-3">
<path style="stroke:none;" d="M 1.28125 -9.484375 L 2.5625 -9.484375 L 2.5625 -5.59375 L 7.21875 -5.59375 L 7.21875 -9.484375 L 8.5 -9.484375 L 8.5 0 L 7.21875 0 L 7.21875 -4.515625 L 2.5625 -4.515625 L 2.5625 0 L 1.28125 0 Z M 1.28125 -9.484375 "/>
</symbol>
<symbol overflow="visible" id="glyph1-0">
<path style="stroke:none;" d="M 0.546875 1.9375 L 0.546875 -7.75 L 6.046875 -7.75 L 6.046875 1.9375 Z M 1.171875 1.328125 L 5.4375 1.328125 L 5.4375 -7.140625 L 1.171875 -7.140625 Z M 1.171875 1.328125 "/>
</symbol>
<symbol overflow="visible" id="glyph1-1">
<path style="stroke:none;" d="M 2.109375 -0.90625 L 5.890625 -0.90625 L 5.890625 0 L 0.8125 0 L 0.8125 -0.90625 C 1.21875 -1.332031 1.773438 -1.90625 2.484375 -2.625 C 3.203125 -3.34375 3.648438 -3.804688 3.828125 -4.015625 C 4.171875 -4.410156 4.410156 -4.742188 4.546875 -5.015625 C 4.691406 -5.285156 4.765625 -5.550781 4.765625 -5.8125 C 4.765625 -6.238281 4.613281 -6.582031 4.3125 -6.84375 C 4.019531 -7.113281 3.628906 -7.25 3.140625 -7.25 C 2.804688 -7.25 2.445312 -7.1875 2.0625 -7.0625 C 1.6875 -6.945312 1.285156 -6.769531 0.859375 -6.53125 L 0.859375 -7.625 C 1.296875 -7.800781 1.703125 -7.9375 2.078125 -8.03125 C 2.460938 -8.125 2.8125 -8.171875 3.125 -8.171875 C 3.957031 -8.171875 4.617188 -7.960938 5.109375 -7.546875 C 5.609375 -7.128906 5.859375 -6.570312 5.859375 -5.875 C 5.859375 -5.539062 5.796875 -5.226562 5.671875 -4.9375 C 5.546875 -4.644531 5.320312 -4.296875 5 -3.890625 C 4.90625 -3.785156 4.617188 -3.484375 4.140625 -2.984375 C 3.660156 -2.492188 2.984375 -1.800781 2.109375 -0.90625 Z M 2.109375 -0.90625 "/>
</symbol>
</g>
</defs>
<g id="surface10289">
<rect x="0" y="0" width="300" height="300" style="fill:rgb(100%,100%,100%);fill-opacity:1;stroke:none;"/>
<path style="fill:none;stroke-width:1.2;stroke-linecap:butt;stroke-linejoin:miter;stroke:rgb(100%,0%,0%);stroke-opacity:1;stroke-miterlimit:10;" d="M 36.613281 182.359375 L 35.929688 165.894531 "/>
<path style="fill:none;stroke-width:1.2;stroke-linecap:butt;stroke-linejoin:miter;stroke:rgb(0%,0%,0%);stroke-opacity:1;stroke-miterlimit:10;" d="M 35.929688 165.894531 L 35.25 149.429688 "/>
<path style="fill:none;stroke-width:1.2;stroke-linecap:butt;stroke-linejoin:miter;stroke:rgb(0%,0%,0%);stroke-opacity:1;stroke-miterlimit:10;" d="M 65.808594 197.644531 L 51.210938 190.003906 "/>
<path style="fill:none;stroke-width:1.2;stroke-linecap:butt;stroke-linejoin:miter;stroke:rgb(100%,0%,0%);stroke-opacity:1;stroke-miterlimit:10;" d="M 51.210938 190.003906 L 36.613281 182.359375 "/>
<path style=" stroke:none;fill-rule:nonzero;fill:rgb(100%,100%,100%);fill-opacity:1;" d="M 31.613281 174.359375 L 42.613281 174.359375 L 42.613281 190.359375 L 31.613281 190.359375 Z M 31.613281 174.359375 "/>
<g style="fill:rgb(100%,0%,0%);fill-opacity:1;">
  <use xlink:href="#glyph0-1" x="31.613281" y="186.735352"/>
</g>
<path style="fill:none;stroke-width:1.2;stroke-linecap:butt;stroke-linejoin:miter;stroke:rgb(0%,0%,0%);stroke-opacity:1;stroke-miterlimit:10;" d="M 35.25 149.429688 L 63.085938 131.789062 "/>
<path style="fill:none;stroke-width:1.2;stroke-linecap:butt;stroke-linejoin:miter;stroke:rgb(0%,0%,0%);stroke-opacity:1;stroke-miterlimit:10;" d="M 63.085938 131.789062 L 77.6875 139.429688 "/>
<path style="fill:none;stroke-width:1.2;stroke-linecap:butt;stroke-linejoin:miter;stroke:rgb(0%,0%,100%);stroke-opacity:1;stroke-miterlimit:10;" d="M 77.6875 139.429688 L 92.285156 147.074219 "/>
<path style="fill:none;stroke-width:1.2;stroke-linecap:butt;stroke-linejoin:miter;stroke:rgb(0%,0%,100%);stroke-opacity:1;stroke-miterlimit:10;" d="M 92.285156 147.074219 L 92.964844 163.539062 "/>
<path style="fill:none;stroke-width:1.2;stroke-linecap:butt;stroke-linejoin:miter;stroke:rgb(0%,0%,0%);stroke-opacity:1;stroke-miterlimit:10;" d="M 92.964844 163.539062 L 93.644531 180.003906 "/>
<path style="fill:none;stroke-width:1.2;stroke-linecap:butt;stroke-linejoin:miter;stroke:rgb(0%,0%,100%);stroke-opacity:1;stroke-miterlimit:10;" d="M 92.285156 147.074219 L 106.203125 138.25 "/>
<path style="fill:none;stroke-width:1.2;stroke-linecap:butt;stroke-linejoin:miter;stroke:rgb(0%,0%,0%);stroke-opacity:1;stroke-miterlimit:10;" d="M 106.203125 138.25 L 120.121094 129.429688 "/>
<path style=" stroke:none;fill-rule:nonzero;fill:rgb(100%,100%,100%);fill-opacity:1;" d="M 87.285156 139.074219 L 97.285156 139.074219 L 97.285156 155.074219 L 87.285156 155.074219 Z M 87.285156 139.074219 "/>
<g style="fill:rgb(0%,0%,100%);fill-opacity:1;">
  <use xlink:href="#glyph0-2" x="87.285156" y="151.450195"/>
</g>
<path style="fill:none;stroke-width:1.2;stroke-linecap:butt;stroke-linejoin:miter;stroke:rgb(0%,0%,0%);stroke-opacity:1;stroke-miterlimit:10;" d="M 93.644531 180.003906 L 65.808594 197.644531 "/>
<path style="fill:none;stroke-width:1.2;stroke-linecap:butt;stroke-linejoin:miter;stroke:rgb(0%,0%,0%);stroke-opacity:1;stroke-miterlimit:10;" d="M 120.121094 129.429688 L 149.320312 144.714844 "/>
<path style="fill:none;stroke-width:1.2;stroke-linecap:butt;stroke-linejoin:miter;stroke:rgb(0%,0%,0%);stroke-opacity:1;stroke-miterlimit:10;" d="M 126.636719 124.089844 L 149.996094 136.316406 "/>
<path style="fill:none;stroke-width:1.2;stroke-linecap:butt;stroke-linejoin:miter;stroke:rgb(0%,0%,0%);stroke-opacity:1;stroke-miterlimit:10;" d="M 118.761719 96.5 L 120.121094 129.429688 "/>
<path style="fill:none;stroke-width:1.2;stroke-linecap:butt;stroke-linejoin:miter;stroke:rgb(0%,0%,0%);stroke-opacity:1;stroke-miterlimit:10;" d="M 149.320312 144.714844 L 177.15625 127.070312 "/>
<path style="fill:none;stroke-width:1.2;stroke-linecap:butt;stroke-linejoin:miter;stroke:rgb(0%,0%,0%);stroke-opacity:1;stroke-miterlimit:10;" d="M 177.15625 127.070312 L 206.355469 142.355469 "/>
<path style="fill:none;stroke-width:1.2;stroke-linecap:butt;stroke-linejoin:miter;stroke:rgb(0%,0%,0%);stroke-opacity:1;stroke-miterlimit:10;" d="M 177.15625 127.070312 L 175.792969 94.144531 "/>
<path style="fill:none;stroke-width:1.2;stroke-linecap:butt;stroke-linejoin:miter;stroke:rgb(0%,0%,0%);stroke-opacity:1;stroke-miterlimit:10;" d="M 169.273438 124.097656 L 168.183594 97.757812 "/>
<path style="fill:none;stroke-width:1.2;stroke-linecap:butt;stroke-linejoin:miter;stroke:rgb(0%,0%,0%);stroke-opacity:1;stroke-miterlimit:10;" d="M 206.355469 142.355469 L 207.035156 158.820312 "/>
<path style="fill:none;stroke-width:1.2;stroke-linecap:butt;stroke-linejoin:miter;stroke:rgb(0%,0%,100%);stroke-opacity:1;stroke-miterlimit:10;" d="M 207.035156 158.820312 L 207.714844 175.285156 "/>
<path style="fill:none;stroke-width:1.2;stroke-linecap:butt;stroke-linejoin:miter;stroke:rgb(0%,0%,0%);stroke-opacity:1;stroke-miterlimit:10;" d="M 214.238281 145.328125 L 214.78125 158.5 "/>
<path style="fill:none;stroke-width:1.2;stroke-linecap:butt;stroke-linejoin:miter;stroke:rgb(0%,0%,100%);stroke-opacity:1;stroke-miterlimit:10;" d="M 214.78125 158.5 L 215.328125 171.671875 "/>
<path style="fill:none;stroke-width:1.2;stroke-linecap:butt;stroke-linejoin:miter;stroke:rgb(0%,0%,0%);stroke-opacity:1;stroke-miterlimit:10;" d="M 234.191406 124.714844 L 206.355469 142.355469 "/>
<path style="fill:none;stroke-width:1.2;stroke-linecap:butt;stroke-linejoin:miter;stroke:rgb(0%,0%,100%);stroke-opacity:1;stroke-miterlimit:10;" d="M 207.714844 175.285156 L 222.3125 182.929688 "/>
<path style="fill:none;stroke-width:1.2;stroke-linecap:butt;stroke-linejoin:miter;stroke:rgb(0%,0%,0%);stroke-opacity:1;stroke-miterlimit:10;" d="M 222.3125 182.929688 L 236.914062 190.570312 "/>
<path style=" stroke:none;fill-rule:nonzero;fill:rgb(100%,100%,100%);fill-opacity:1;" d="M 202.714844 167.285156 L 212.714844 167.285156 L 212.714844 183.285156 L 202.714844 183.285156 Z M 202.714844 167.285156 "/>
<g style="fill:rgb(0%,0%,100%);fill-opacity:1;">
  <use xlink:href="#glyph0-2" x="202.714844" y="179.661133"/>
</g>
<path style="fill:none;stroke-width:1.2;stroke-linecap:butt;stroke-linejoin:miter;stroke:rgb(0%,0%,0%);stroke-opacity:1;stroke-miterlimit:10;" d="M 236.914062 190.570312 L 250.832031 181.75 "/>
<path style="fill:none;stroke-width:1.2;stroke-linecap:butt;stroke-linejoin:miter;stroke:rgb(0%,0%,100%);stroke-opacity:1;stroke-miterlimit:10;" d="M 250.832031 181.75 L 264.75 172.929688 "/>
<path style="fill:none;stroke-width:1.2;stroke-linecap:butt;stroke-linejoin:miter;stroke:rgb(0%,0%,0%);stroke-opacity:1;stroke-miterlimit:10;" d="M 235.546875 182.257812 L 246.679688 175.199219 "/>
<path style="fill:none;stroke-width:1.2;stroke-linecap:butt;stroke-linejoin:miter;stroke:rgb(0%,0%,100%);stroke-opacity:1;stroke-miterlimit:10;" d="M 246.679688 175.199219 L 257.816406 168.144531 "/>
<path style="fill:none;stroke-width:1.2;stroke-linecap:butt;stroke-linejoin:miter;stroke:rgb(0%,0%,0%);stroke-opacity:1;stroke-miterlimit:10;" d="M 236.914062 190.570312 L 237.59375 207.035156 "/>
<path style="fill:none;stroke-width:1.2;stroke-linecap:butt;stroke-linejoin:miter;stroke:rgb(0%,0%,100%);stroke-opacity:1;stroke-miterlimit:10;" d="M 237.59375 207.035156 L 238.273438 223.5 "/>
<path style="fill:none;stroke-width:1.2;stroke-linecap:butt;stroke-linejoin:miter;stroke:rgb(0%,0%,100%);stroke-opacity:1;stroke-miterlimit:10;" d="M 264.75 172.929688 L 264.070312 156.464844 "/>
<path style="fill:none;stroke-width:1.2;stroke-linecap:butt;stroke-linejoin:miter;stroke:rgb(0%,0%,0%);stroke-opacity:1;stroke-miterlimit:10;" d="M 264.070312 156.464844 L 263.386719 140 "/>
<path style=" stroke:none;fill-rule:nonzero;fill:rgb(100%,100%,100%);fill-opacity:1;" d="M 259.75 164.929688 L 269.75 164.929688 L 269.75 180.929688 L 259.75 180.929688 Z M 259.75 164.929688 "/>
<g style="fill:rgb(0%,0%,100%);fill-opacity:1;">
  <use xlink:href="#glyph0-2" x="259.75" y="177.305664"/>
</g>
<path style="fill:none;stroke-width:1.2;stroke-linecap:butt;stroke-linejoin:miter;stroke:rgb(0%,0%,0%);stroke-opacity:1;stroke-miterlimit:10;" d="M 263.386719 140 L 234.191406 124.714844 "/>
<path style="fill:none;stroke-width:1.2;stroke-linecap:butt;stroke-linejoin:miter;stroke:rgb(0%,0%,0%);stroke-opacity:1;stroke-miterlimit:10;" d="M 256.871094 145.339844 L 233.515625 133.113281 "/>
<path style=" stroke:none;fill-rule:nonzero;fill:rgb(100%,100%,100%);fill-opacity:1;" d="M 224.273438 213.5 L 252.273438 213.5 L 252.273438 233.5 L 224.273438 233.5 Z M 224.273438 213.5 "/>
<g style="fill:rgb(0%,0%,100%);fill-opacity:1;">
  <use xlink:href="#glyph0-2" x="224.273438" y="225.875977"/>
  <use xlink:href="#glyph0-3" x="234.243164" y="225.875977"/>
</g>
<g style="fill:rgb(0%,0%,100%);fill-opacity:1;">
  <use xlink:href="#glyph1-1" x="244.265625" y="230.758789"/>
</g>
<path style="fill:none;stroke-width:1.2;stroke-linecap:butt;stroke-linejoin:miter;stroke:rgb(0%,0%,0%);stroke-opacity:1;stroke-miterlimit:10;" d="M 175.792969 94.144531 L 189.710938 85.320312 "/>
<path style="fill:none;stroke-width:1.2;stroke-linecap:butt;stroke-linejoin:miter;stroke:rgb(100%,0%,0%);stroke-opacity:1;stroke-miterlimit:10;" d="M 189.710938 85.320312 L 203.632812 76.5 "/>
<path style="fill:none;stroke-width:1.2;stroke-linecap:butt;stroke-linejoin:miter;stroke:rgb(0%,0%,0%);stroke-opacity:1;stroke-miterlimit:10;" d="M 175.792969 94.144531 L 146.597656 78.855469 "/>
<path style=" stroke:none;fill-rule:nonzero;fill:rgb(100%,100%,100%);fill-opacity:1;" d="M 193.632812 68.5 L 214.632812 68.5 L 214.632812 84.5 L 193.632812 84.5 Z M 193.632812 68.5 "/>
<g style="fill:rgb(100%,0%,0%);fill-opacity:1;">
  <use xlink:href="#glyph0-1" x="193.632812" y="80.875977"/>
  <use xlink:href="#glyph0-3" x="204.123047" y="80.875977"/>
</g>
<path style="fill:none;stroke-width:1.2;stroke-linecap:butt;stroke-linejoin:miter;stroke:rgb(0%,0%,0%);stroke-opacity:1;stroke-miterlimit:10;" d="M 146.597656 78.855469 L 118.761719 96.5 "/>
<path style="fill:none;stroke-width:1.2;stroke-linecap:butt;stroke-linejoin:miter;stroke:rgb(0%,0%,0%);stroke-opacity:1;stroke-miterlimit:10;" d="M 147.964844 87.171875 L 125.695312 101.285156 "/>
</g>
</svg>

<svg xmlns="http://www.w3.org/2000/svg" xmlns:xlink="http://www.w3.org/1999/xlink" width="300pt" height="300pt" viewBox="0 0 300 300"><defs><symbol overflow="visible"><path d="M.64 2.297v-11.47h6.5v11.47zm.735-.72h5.047V-8.436H1.375zm0 0"/></symbol><symbol overflow="visible" id="a"><path d="M5.125-8.61c-.938 0-1.684.352-2.234 1.047-.542.688-.812 1.633-.812 2.83 0 1.198.27 2.147.813 2.842.55.687 1.297 1.03 2.235 1.03.926 0 1.66-.343 2.203-1.03.55-.696.828-1.645.828-2.844 0-1.196-.277-2.14-.828-2.829-.543-.695-1.277-1.046-2.203-1.046zm0-1.046c1.32 0 2.38.45 3.172 1.344.8.898 1.203 2.09 1.203 3.578 0 1.5-.402 2.7-1.203 3.593C7.504-.255 6.445.186 5.125.186c-1.336 0-2.402-.44-3.203-1.328C1.13-2.036.734-3.235.734-4.735c0-1.49.395-2.68 1.188-3.579.8-.894 1.867-1.343 3.203-1.343zm0 0"/></symbol><symbol overflow="visible" id="b"><path d="M1.28-9.484H3l4.203 7.937v-7.937h1.25V0H6.72L2.515-7.922V0H1.28zm0 0"/></symbol><symbol overflow="visible" id="c"><path d="M1.28-9.484h1.282v3.89H7.22v-3.89H8.5V0H7.22v-4.516H2.562V0H1.28zm0 0"/></symbol><symbol overflow="visible"><path d="M.547 1.938V-7.75h5.5v9.688zm.625-.61h4.266v-8.47H1.171zm0 0"/></symbol><symbol overflow="visible" id="d"><path d="M2.11-.906h3.78V0H.814v-.906c.406-.426.96-1 1.67-1.72.72-.718 1.165-1.18 1.345-1.39.344-.394.582-.726.72-1 .143-.27.218-.535.218-.796 0-.426-.153-.77-.454-1.032-.292-.27-.683-.406-1.17-.406-.337 0-.697.063-1.08.188-.374.117-.777.292-1.203.53v-1.093c.437-.176.843-.313 1.218-.406.383-.095.735-.142 1.047-.142.832 0 1.492.21 1.984.625.5.418.75.977.75 1.672 0 .336-.063.648-.188.938-.125.292-.352.64-.672 1.046-.094.105-.383.406-.86.906L2.11-.906zm0 0"/></symbol></defs><g><path fill="#fff" d="M0 0h300v300H0z"/><path d="M36.613 182.36l-.683-16.465" stroke-width="1.2" stroke="#f00" stroke-miterlimit="10" fill="none"/><path d="M35.93 165.895l-.68-16.465M65.81 197.645l-14.6-7.64" stroke-width="1.2" stroke="#000" stroke-miterlimit="10" fill="none"/><path d="M51.21 190.004l-14.597-7.645" stroke-width="1.2" stroke="#f00" stroke-miterlimit="10" fill="none"/><path d="M31.613 174.36h11v16h-11zm0 0" fill="#fff"/><use xlink:href="#a" x="31.613" y="186.735" fill="#f00"/><path d="M35.25 149.43l27.836-17.64M63.086 131.79l14.602 7.64" stroke-width="1.2" stroke="#000" stroke-miterlimit="10" fill="none"/><path d="M77.688 139.43l14.597 7.644M92.285 147.074l.68 16.465" stroke-width="1.2" stroke="#00f" stroke-miterlimit="10" fill="none"/><path d="M92.965 163.54l.68 16.464" stroke-width="1.2" stroke="#000" stroke-miterlimit="10" fill="none"/><path d="M92.285 147.074l13.918-8.824" stroke-width="1.2" stroke="#00f" stroke-miterlimit="10" fill="none"/><path d="M106.203 138.25l13.918-8.82" stroke-width="1.2" stroke="#000" stroke-miterlimit="10" fill="none"/><path d="M87.285 139.074h10v16h-10zm0 0" fill="#fff"/><use xlink:href="#b" x="87.285" y="151.45" fill="#00f"/><path d="M93.645 180.004l-27.836 17.64M120.12 129.43l29.2 15.285M126.637 124.09l23.36 12.226M118.762 96.5l1.36 32.93M149.32 144.715l27.836-17.645M177.156 127.07l29.2 15.285M177.156 127.07l-1.363-32.925M169.273 124.098l-1.09-26.34M206.355 142.355l.68 16.465" stroke-width="1.2" stroke="#000" stroke-miterlimit="10" fill="none"/><path d="M207.035 158.82l.68 16.465" stroke-width="1.2" stroke="#00f" stroke-miterlimit="10" fill="none"/><path d="M214.238 145.328l.543 13.172" stroke-width="1.2" stroke="#000" stroke-miterlimit="10" fill="none"/><path d="M214.78 158.5l.548 13.172" stroke-width="1.2" stroke="#00f" stroke-miterlimit="10" fill="none"/><path d="M234.19 124.715l-27.835 17.64" stroke-width="1.2" stroke="#000" stroke-miterlimit="10" fill="none"/><path d="M207.715 175.285l14.597 7.645" stroke-width="1.2" stroke="#00f" stroke-miterlimit="10" fill="none"/><path d="M222.313 182.93l14.6 7.64" stroke-width="1.2" stroke="#000" stroke-miterlimit="10" fill="none"/><path d="M202.715 167.285h10v16h-10zm0 0" fill="#fff"/><use xlink:href="#b" x="202.715" y="179.661" fill="#00f"/><path d="M236.914 190.57l13.918-8.82" stroke-width="1.2" stroke="#000" stroke-miterlimit="10" fill="none"/><path d="M250.832 181.75l13.918-8.82" stroke-width="1.2" stroke="#00f" stroke-miterlimit="10" fill="none"/><path d="M235.547 182.258l11.133-7.06" stroke-width="1.2" stroke="#000" stroke-miterlimit="10" fill="none"/><path d="M246.68 175.2l11.136-7.055" stroke-width="1.2" stroke="#00f" stroke-miterlimit="10" fill="none"/><path d="M236.914 190.57l.68 16.465" stroke-width="1.2" stroke="#000" stroke-miterlimit="10" fill="none"/><path d="M237.594 207.035l.68 16.465M264.75 172.93l-.68-16.465" stroke-width="1.2" stroke="#00f" stroke-miterlimit="10" fill="none"/><path d="M264.07 156.465L263.387 140" stroke-width="1.2" stroke="#000" stroke-miterlimit="10" fill="none"/><path d="M259.75 164.93h10v16h-10zm0 0" fill="#fff"/><use xlink:href="#b" x="259.75" y="177.306" fill="#00f"/><path d="M263.387 140l-29.196-15.285M256.87 145.34l-23.354-12.227" stroke-width="1.2" stroke="#000" stroke-miterlimit="10" fill="none"/><path d="M224.273 213.5h28v20h-28zm0 0" fill="#fff"/><g fill="#00f"><use xlink:href="#b" x="224.273" y="225.876"/><use xlink:href="#c" x="234.243" y="225.876"/></g><use xlink:href="#d" x="244.266" y="230.759" fill="#00f"/><path d="M175.793 94.145l13.918-8.825" stroke-width="1.2" stroke="#000" stroke-miterlimit="10" fill="none"/><path d="M189.71 85.32l13.923-8.82" stroke-width="1.2" stroke="#f00" stroke-miterlimit="10" fill="none"/><path d="M175.793 94.145l-29.195-15.29" stroke-width="1.2" stroke="#000" stroke-miterlimit="10" fill="none"/><path d="M193.633 68.5h21v16h-21zm0 0" fill="#fff"/><g fill="#f00"><use xlink:href="#a" x="193.633" y="80.876"/><use xlink:href="#c" x="204.123" y="80.876"/></g><path d="M146.598 78.855L118.762 96.5M147.965 87.172l-22.27 14.113" stroke-width="1.2" stroke="#000" stroke-miterlimit="10" fill="none"/></g></svg>
